!!!OTL: MAEDCHEN SAG MIRS FUER GEWISS
!!!ARE: Europa, Mitteleuropa, Deutschland, Hessen, Wetterau; Dill - Kreis
!!!SCT: E1420
!!!YEM: Copyright 1995, estate of Helmut Schaffrath.
**kern
*ICvox
*Ivox
*M4/4
*k[f#]
*G:
=1
{4d
4g
4f#
4a
=2
4g
4e
2d}
=3
{4b
4b
4a
4dd
=4
4cc
4b
2a}
=5
{4a
4a
4a
4b
=6
4.g
8a
4b
4dd}
=7
{4a
4a
4a
4b
=8
4.g
8a
4b
4dd}
=9
{4cc
4ee
4dd
4b
=10
4a
4a
2g}
==
!!!AGN: Staende -, Soldaten - Lied, Liebe
!!!ONB: ESAC (Essen Associative Code) Database: ERK3
!!!AMT: simple quadruple
!!!AIN: vox
!!!EED: Helmut Schaffrath
!!!EEV: 1.0
*-
